X:1
T:Clanranald
S:Deaf Shepherd
Z:Nigel Gatherer
L:1/8
M:4/4
K:Dm
z | D3 A FDD=B | cCCG ECGE | D3   A FD A/B/c | ECGE ADD :|
e | fdAG FEDf  | ecGF EDCe | fdAG   FED=B    | cAGE ADD  
e | fdAG FEDf  | ecGF EDCe | f<ae<g decd     | AcGE ADD ||
